symbolic/24x24/apps/kodi.svg

<svg xmlns="http://www.w3.org/2000/svg" width="24" height="24" version="1">
 <path style="opacity:0.2" d="m 11.499695,1.500019 c -0.550024,0 -1.100416,0.2050106 -1.5115731,0.6161574 L 1.6161482,10.489083 c -0.82231375,0.822293 -0.82114725,2.198408 0.0012,3.020702 l 8.3719737,8.372907 c 0.8223141,0.822294 2.1996551,0.82346 3.0219691,0.0012 l 8.371974,-8.372906 c 0.822313,-0.822294 0.822314,-2.199587 0,-3.021881 L 13.011269,2.1161764 C 12.600113,1.7050296 12.04972,1.500019 11.499695,1.500019 Z"/>
 <path style="fill:#31afe1" d="m 11.499695,1.0000196 c -0.550024,0 -1.100416,0.2050106 -1.5115731,0.6161574 L 1.6161482,9.9890839 c -0.82231375,0.8222931 -0.82114725,2.1984081 0.0012,3.0207021 l 8.3719737,8.372906 c 0.8223141,0.822294 2.1996551,0.823461 3.0219691,0.0012 l 8.371974,-8.372906 c 0.822313,-0.822294 0.822314,-2.199587 0,-3.0218801 L 13.011269,1.616177 C 12.600113,1.2050302 12.04972,1.0000196 11.499695,1.0000196 Z"/>
 <path style="opacity:0.2;fill:#ffffff" d="m 11.5,1.0000196 c -0.550024,0 -1.100561,0.2050636 -1.5117176,0.6162104 L 1.6162201,9.9892694 C 1.1431471,10.46233 0.95187285,11.117349 1.0234472,11.746104 1.0769214,11.284226 1.2685988,10.836881 1.6162201,10.489269 L 9.9882824,2.1162296 C 10.399439,1.7050828 10.949976,1.5000192 11.5,1.5000192 c 0.550025,0 1.100561,0.2050636 1.511718,0.6162104 l 8.371085,8.3730394 c 0.3485,0.34849 0.540641,0.797376 0.59375,1.260741 0.07221,-0.629984 -0.119935,-1.286938 -0.59375,-1.7607406 L 13.011718,1.61623 C 12.600561,1.2050833 12.050025,1.0000196 11.5,1.0000196 Z"/>
 <path style="opacity:0.2" d="m 7,5.1032186 -2,2 0,9.7890624 1.3398438,1.339844 0.171875,0.169922 L 11.5,13.413765 16.490234,18.404 17.904297,16.989937 12.914062,11.999703 17.904297,7.0094686 16.490234,5.5954061 7,15.085641 7,5.1032186 Z"/>
 <path style="fill:#ffffff" d="m 7,4.6035156 -2,2 0,9.7890624 1.3398438,1.339844 0.171875,0.169922 L 11.5,12.914062 16.490234,17.904297 17.904297,16.490234 12.914062,11.5 17.904297,6.5097656 16.490234,5.0957031 7,14.585938 7,4.6035156 Z"/>
</svg>

<svg xmlns="http://www.w3.org/2000/svg" width="24" height="24" version="1"><path style="opacity:.2" d="M11.5 1.5c-.55 0-1.1.205-1.512.616L1.616 10.49a2.158 2.158 0 0 0 .001 3.02l8.372 8.374a2.16 2.16 0 0 0 3.022 0l8.372-8.372a2.16 2.16 0 0 0 0-3.022l-8.372-8.373A2.131 2.131 0 0 0 11.5 1.5z"/><path style="fill:#31afe1" d="M11.5 1c-.55 0-1.1.205-1.512.616L1.616 9.99a2.158 2.158 0 0 0 .001 3.02l8.372 8.374a2.16 2.16 0 0 0 3.022 0l8.372-8.372a2.16 2.16 0 0 0 0-3.022l-8.372-8.373A2.131 2.131 0 0 0 11.5 1z"/><path style="opacity:.2;fill:#fff" d="M11.5 1c-.55 0-1.1.205-1.512.616L1.616 9.99a2.131 2.131 0 0 0-.593 1.757c.054-.462.246-.91.593-1.257l8.372-8.373A2.132 2.132 0 0 1 11.5 1.5c.55 0 1.1.205 1.512.616l8.37 8.373c.35.349.541.798.595 1.261a2.135 2.135 0 0 0-.594-1.76l-8.371-8.374A2.132 2.132 0 0 0 11.5 1z"/><path style="opacity:.2" d="m7 5.103-2 2v9.79l1.34 1.34.172.169 4.988-4.988 4.99 4.99 1.414-1.414-4.99-4.99 4.99-4.99-1.414-1.415L7 15.085V5.104z"/><path style="fill:#fff" d="m7 4.604-2 2v9.789l1.34 1.34.172.17 4.988-4.989 4.99 4.99 1.414-1.414-4.99-4.99 4.99-4.99-1.414-1.414L7 14.586V4.604z"/></svg>
